**kern	**kern
*part1	*part1
*staff2	*staff1
*I"Piano	*
*clefF4	*clefG2
*k[b-e-a-]	*k[b-e-a-]
=1	=1
*^	*
8E-L	4.EE-]	4.B- 4.d 4.f
8BB-	.	.
8E-J	.	.
=	=	=
*	*	*^
8BB-L	[4.EE-	32ee-LLL	8gL 8b-
.	.	32ffJ	.
.	.	16ee-J	.
8E-	.	8aa-	8cc 8ee-
8BB-J	.	8ffJ	8a-J 8dd
=	=	=	=
8E-L	4.EE-]	4.ee- 4.gg	4.b-
8BB-	.	.	.
8E-J	.	.	.
=	=	=	=
8BB-L	[4.EE-	32ee-LLL	8gL 8b-
.	.	32ffJ	.
.	.	16ee-J	.
8E-	.	8aa-	8cc 8ee-
8BB-J	.	8ffJ	8a-J 8dd
=	=	=	=
8E-L	4.EE-]	4.gg	4.b- 4.ee-
8BB-	.	.	.
8E-J	.	.	.
*	*	*v	*v
=	=	=
8BB-L	[4.EE-	4a- 4cc 4ff
8E-	.	.
8BB-J	.	8cc 8ff 8aa-
=	=	=
8E-L	4.EE-]	4a- 4cc 4ff
8BB-	.	.
8E-J	.	8cc 8ff 8aa-
*v	*v	*
=	=
*-	*-
!!!system-decoration: {(s1,s2)}
